static/icons/sass.svg

<svg xmlns="http://www.w3.org/2000/svg" width="24" height="24" viewBox="0 0 24 24">
  <path d="M18.7742309,12.923051 C18.2143902,12.9255602 17.7295282,13.0610525 17.3246433,13.2617819 C17.1771853,12.9631969 17.0247287,12.7022487 16.9997358,12.5065375 C16.9697443,12.2782078 16.9372536,12.1427154 16.9722436,11.8717307 C17.0072337,11.600746 17.1646889,11.216851 17.1621896,11.1892507 C17.1596903,11.1616504 17.1271995,11.023649 16.8047912,11.0211398 C16.482383,11.0186307 16.2049619,11.0838678 16.1724711,11.1691778 C16.1399804,11.2544878 16.0774982,11.4476898 16.0400088,11.6484193 C15.9825252,11.941986 15.3951923,12.9907972 15.0627869,13.5377849 C14.9528181,13.3245099 14.8603445,13.1363261 14.8403501,12.985779 C14.8103587,12.7574493 14.7778679,12.6219569 14.812858,12.3509722 C14.847848,12.0799875 15.0053032,11.6960925 15.0028039,11.6684922 C15.0003046,11.6408919 14.9678139,11.5028904 14.6454056,11.5003813 C14.3229973,11.4978722 14.0455763,11.5631093 14.0130855,11.6484193 C13.9805948,11.7337293 13.9456047,11.9344587 13.8806232,12.1276607 C13.8156417,12.3208628 13.0333642,14.0672087 12.8284226,14.521359 C12.7234524,14.7521978 12.633478,14.9378726 12.5684965,15.0633284 C12.503515,15.1887843 12.5634979,15.0708558 12.5584993,15.0859105 C12.503515,15.1938026 12.4710242,15.2540214 12.4710242,15.2540214 L12.4710242,15.2565305 C12.4285363,15.3368223 12.3810498,15.4095867 12.3585562,15.4095867 C12.3435605,15.4095867 12.3110697,15.1988208 12.3660541,14.9102723 C12.4835207,14.3030658 12.7609418,13.3596375 12.7584425,13.327019 C12.7559432,13.3094552 12.8109275,13.1463625 12.5759944,13.0585434 C12.3485591,12.9757425 12.2660825,13.113744 12.2460882,13.113744 C12.2260939,13.113744 12.2110982,13.1639263 12.2110982,13.1639263 C12.2110982,13.1639263 12.4635264,12.1000604 11.7262361,12.1000604 C11.266367,12.1000604 10.626549,12.6069022 10.3116386,13.0660708 C10.1141948,13.1739628 9.68681636,13.4073108 9.23694435,13.6557134 C9.06449341,13.7510599 8.8870439,13.8489155 8.71959154,13.9417528 C8.7070951,13.9292072 8.69709794,13.9166617 8.6846015,13.9041161 C7.78985606,12.9456331 6.13782607,12.2681713 6.20780616,10.980994 C6.23279905,10.511789 6.39525283,9.27981217 9.3844024,7.78437803 C11.8337056,6.55992859 13.7931481,6.89615036 14.1305521,7.64386744 C14.6154141,8.71024245 13.08335,10.6949545 10.5390739,10.980994 C9.56934978,11.088886 9.05949484,10.7125184 8.9320311,10.5720078 C8.79956879,10.4239698 8.77957448,10.4164425 8.7295887,10.4440428 C8.64711216,10.4892069 8.69959723,10.619681 8.7295887,10.6974637 C8.80456737,10.895684 9.11697848,11.2469604 9.64932703,11.4225987 C10.1166941,11.5756549 11.2538705,11.6609649 12.6284794,11.1265228 C14.17304,10.5293528 15.375198,8.86580775 15.0227982,7.47324743 C14.6629006,6.05810506 12.3260655,5.59391828 10.1141948,6.38178124 C8.7970695,6.85098625 7.37247481,7.58866685 6.34776634,8.54965892 C5.13061263,9.69381659 4.93566809,10.6899363 5.01564534,11.1064498 C5.30056428,12.5843202 7.32998689,13.5478214 8.1422558,14.2604108 C8.10226717,14.2829928 8.06477784,14.3030658 8.0297878,14.3231387 C7.6224037,14.5263773 6.07534385,15.3393314 5.68795406,16.1974496 C5.2505785,17.1709873 5.76043344,17.868522 6.09533816,17.9638685 C7.14004093,18.2549261 8.2097366,17.7305205 8.78457305,16.8698932 C9.35940951,16.0092658 9.28942942,14.8851811 9.02450479,14.3733211 C9.0220055,14.3657937 9.01700692,14.3607755 9.01450764,14.3532481 C9.11947777,14.2905202 9.2269472,14.2277922 9.33441662,14.1650643 C9.5418576,14.0421175 9.7443,13.9292072 9.92174952,13.8313517 C9.82177796,14.1023364 9.74929858,14.4285217 9.71180925,14.9002358 C9.66682205,15.4522417 9.89425734,16.1673402 10.1891734,16.4483614 C10.3191365,16.5713082 10.4765917,16.5738173 10.5740639,16.5738173 C10.9189658,16.5738173 11.0739217,16.2877779 11.2463727,15.9465379 C11.4588122,15.5300243 11.6462589,15.0457646 11.6462589,15.0457646 C11.6462589,15.0457646 11.4113257,16.355524 12.053643,16.355524 C12.2885761,16.355524 12.5235093,16.0519208 12.6284794,15.8963555 L12.6284794,15.8988646 C12.6284794,15.8988646 12.633478,15.8888282 12.6459745,15.8687552 C12.6709673,15.8311184 12.6834638,15.8085364 12.6834638,15.8085364 L12.6834638,15.801009 C12.7784368,15.6379164 12.9858778,15.2640579 13.2982889,14.6468149 C13.7031737,13.8489155 14.0905635,12.8527958 14.0905635,12.8527958 C14.0905635,12.8527958 14.1255535,13.0961802 14.2455194,13.5001481 C14.3154995,13.7385143 14.4629575,13.9994625 14.5804241,14.2528834 C14.4854511,14.3833575 14.4279675,14.4586311 14.4279675,14.4586311 C14.4279675,14.4586311 14.4279675,14.4611402 14.4304668,14.4636493 C14.3554881,14.564014 14.2705123,14.6719061 14.1830372,14.777289 C13.8631282,15.1586749 13.4832363,15.5952614 13.4332505,15.7207173 C13.3732675,15.8687552 13.3882633,15.9791564 13.5032306,16.0644664 C13.5882064,16.1297035 13.7381637,16.1397399 13.8956189,16.1271943 C14.1830372,16.1071214 14.3854796,16.0368661 14.4829518,15.991702 C14.6379077,15.9365014 14.8178565,15.8486823 14.9878082,15.7257355 C15.3002193,15.4948967 15.4901653,15.1636931 15.4726702,14.7271067 C15.4626731,14.4862314 15.3851951,14.2453561 15.2902222,14.0195355 C15.3177143,13.9793896 15.3477058,13.9367346 15.375198,13.8940796 C15.8700572,13.1689446 16.2524484,12.3735543 16.2524484,12.3735543 C16.2524484,12.3735543 16.2874384,12.6169387 16.4074043,13.0209066 C16.4673872,13.2241452 16.5848538,13.4474566 16.6923232,13.6657499 C16.2274555,14.0446267 15.9400373,14.4837222 15.8400657,14.7722708 C15.6551183,15.3067129 15.8000771,15.5475881 16.0724996,15.6027887 C16.1949647,15.6278799 16.369915,15.5701702 16.499878,15.5149696 C16.6623318,15.459769 16.8572763,15.3719499 17.0397244,15.2364576 C17.3521355,15.0056187 17.6545495,14.6819425 17.6345552,14.242847 C17.6270573,14.0446267 17.572073,13.8464064 17.4995936,13.6557134 C17.8919819,13.4901116 18.4018369,13.3997834 19.051652,13.4750569 C20.4437559,13.6381496 20.7161784,14.5113225 20.6636934,14.8751446 C20.6112083,15.2414758 20.3187915,15.4422052 20.2213192,15.502424 C20.123847,15.5626429 20.0938555,15.5852249 20.1013534,15.630389 C20.1138498,15.6956261 20.158837,15.693117 20.2413135,15.6780623 C20.3562808,15.6579893 20.9711059,15.3819864 20.9985981,14.7070337 C21.0385867,13.8539337 20.2213192,12.9155237 18.7742309,12.923051 Z M8.04478353,16.5537443 C7.58491436,17.058077 6.94009782,17.2487699 6.66267675,17.0881864 C6.36526136,16.9150573 6.48272794,16.1723585 7.05006653,15.6354073 C7.39496841,15.309222 7.83984184,15.0081278 8.13475793,14.8224531 C8.20223873,14.7823073 8.299711,14.7220884 8.41967687,14.649324 C8.43967118,14.6367784 8.44966834,14.6317602 8.44966834,14.6317602 C8.47216194,14.6167055 8.49715483,14.6041599 8.52214772,14.5891052 C8.7295887,15.351877 8.52964558,16.0243205 8.04478353,16.5537443 Z M11.4038279,14.2604108 C11.2438734,14.6543423 10.9064694,15.6579893 10.7015277,15.6052979 C10.5265774,15.5601337 10.419108,14.7948528 10.6665376,14.0421175 C10.7915021,13.6632408 11.0564267,13.2115996 11.2138819,13.0359613 C11.4663101,12.752431 11.7437312,12.6621028 11.8087127,12.7750131 C11.8961878,12.923051 11.5037994,14.0145172 11.4038279,14.2604108 Z M14.1780386,15.5902431 C14.1105578,15.6253708 14.0480756,15.6479529 14.0180841,15.630389 C13.9955905,15.6178434 14.0455763,15.5701702 14.0455763,15.5701702 C14.0455763,15.5701702 14.3929774,15.1963117 14.5304383,15.0256917 C14.6104156,14.925327 14.7028893,14.8073984 14.8028608,14.6769243 C14.8028608,14.6894699 14.8053601,14.7020155 14.8053601,14.7170702 C14.8028608,15.1662023 14.3729831,15.4698055 14.1780386,15.5902431 Z M16.3174299,15.1009652 C16.2674441,15.0658376 16.274942,14.947909 16.4423944,14.5815778 C16.5073759,14.4385581 16.6573332,14.1976828 16.9172593,13.966844 C16.9472507,14.0621905 16.9647457,14.1525187 16.9647457,14.2378287 C16.9622465,14.8023802 16.5598609,15.0131461 16.3174299,15.1009652 Z"/>
</svg>

<svg xmlns="http://www.w3.org/2000/svg" width="24" height="24">
    <path d="M18.774 12.923a3.27 3.27 0 0 0-1.45.339c-.147-.299-.3-.56-.324-.755-.03-.229-.063-.364-.028-.635s.193-.655.19-.683c-.002-.027-.035-.165-.357-.168-.323-.002-.6.063-.633.148a3.091 3.091 0 0 0-.132.48c-.057.293-.645 1.342-.977 1.889-.11-.213-.203-.402-.223-.552-.03-.229-.062-.364-.027-.635s.192-.655.19-.683c-.003-.027-.035-.165-.358-.168-.322-.002-.6.063-.632.148-.032.086-.067.286-.132.48-.065.193-.848 1.94-1.053 2.393-.105.231-.195.417-.26.542-.064.126-.005.008-.01.023a8.99 8.99 0 0 1-.087.168v.003c-.042.08-.09.153-.112.153-.015 0-.048-.211.007-.5.118-.607.395-1.55.392-1.583-.002-.018.053-.18-.182-.268-.227-.083-.31.055-.33.055-.02 0-.035.05-.035.05s.253-1.064-.485-1.064c-.46 0-1.1.507-1.414.966-.198.108-.625.341-1.075.59l-.517.286-.035-.038c-.895-.958-2.547-1.636-2.477-2.923.025-.47.187-1.701 3.176-3.197 2.45-1.224 4.41-.888 4.747-.14.484 1.066-1.048 3.051-3.592 3.337-.97.108-1.48-.268-1.607-.409-.132-.148-.152-.156-.202-.128-.083.045-.03.176 0 .253.075.199.387.55.92.726.467.153 1.604.238 2.978-.296 1.545-.598 2.747-2.261 2.395-3.654-.36-1.415-2.697-1.88-4.909-1.091-1.317.469-2.742 1.207-3.766 2.168-1.217 1.144-1.412 2.14-1.332 2.556.285 1.478 2.314 2.442 3.126 3.154l-.112.063c-.408.203-1.955 1.016-2.342 1.874-.437.974.072 1.672.407 1.767 1.045.29 2.115-.233 2.69-1.094.574-.86.504-1.985.24-2.497-.003-.007-.008-.012-.01-.02a36.236 36.236 0 0 1 .907-.522c-.1.271-.173.598-.21 1.07-.045.551.182 1.266.477 1.547.13.123.288.126.385.126.345 0 .5-.286.672-.627.213-.417.4-.901.4-.901s-.235 1.31.408 1.31c.235 0 .47-.304.574-.46v.003l.018-.03c.025-.038.037-.06.037-.06V15.8c.095-.163.303-.537.615-1.154.405-.798.793-1.794.793-1.794s.035.243.155.647c.07.239.217.5.334.753l-.152.206.002.005c-.075.1-.16.208-.247.313-.32.382-.7.818-.75.944-.06.148-.045.258.07.343.085.066.235.076.393.063.287-.02.49-.09.587-.135.155-.055.335-.143.505-.266.312-.231.502-.562.485-.999a2.085 2.085 0 0 0-.183-.707c.028-.04.058-.083.085-.126.495-.725.877-1.52.877-1.52s.035.243.155.647c.06.203.178.426.285.645-.465.379-.752.818-.852 1.106-.185.535-.04.776.232.83.123.026.298-.032.428-.087a1.98 1.98 0 0 0 .54-.279c.312-.23.615-.554.595-.993a1.873 1.873 0 0 0-.135-.587c.392-.166.902-.256 1.552-.18 1.392.162 1.664 1.035 1.612 1.4-.053.365-.345.566-.443.626-.097.06-.127.083-.12.128.013.066.058.063.14.048.115-.02.73-.296.758-.971.04-.853-.778-1.791-2.225-1.784zm-10.73 3.63c-.46.505-1.104.696-1.381.535-.298-.173-.18-.916.387-1.453.345-.326.79-.627 1.085-.813l.285-.173.03-.017c.022-.015.047-.028.072-.043.208.763.008 1.435-.477 1.965zm3.36-2.293c-.16.394-.498 1.398-.702 1.345-.175-.045-.283-.81-.035-1.563.125-.379.39-.83.547-1.006.252-.284.53-.374.595-.261.087.148-.305 1.24-.405 1.485zm2.774 1.33c-.067.035-.13.058-.16.04-.022-.012.028-.06.028-.06s.347-.374.484-.544c.08-.1.173-.219.273-.35l.002.041c-.002.45-.432.753-.627.873zm2.14-.489c-.05-.035-.043-.153.124-.52.065-.142.215-.383.475-.614a.91.91 0 0 1 .048.27c-.003.565-.405.776-.648.864z"/>
</svg>
